src/actions/22/games-hint.svg

<svg xmlns="http://www.w3.org/2000/svg" viewBox="0 0 22 22">
  <defs id="defs3051">
    <style type="text/css" id="current-color-scheme">
      .ColorScheme-Text {
        color:#2e3440;
      }
      </style>
  </defs>
 <path 
    style="fill:currentColor;fill-opacity:1;stroke:none" 
    d="M 11 3 L 11 3.0019531 C 8.00044 3.0019531 6.5 4.9881406 6.5 7.4003906 C 6.5 9.9997541 9.4140625 15 9.4140625 15 L 12.585938 14.996094 C 12.585938 14.996094 15.5 9.999751 15.5 7.4003906 C 15.5 4.9881646 14.00044 3 11 3 z M 11 4.0019531 C 13.33368 4.0019531 14.5 5.6577086 14.5 7.6679688 C 14.5 9.834169 12.234375 13.998047 12.234375 13.998047 L 9.765625 14.001953 C 9.765625 14.001953 7.5 9.8341689 7.5 7.6679688 C 7.5 5.6576788 8.66702 4.0039063 11 4.0039062 L 11 4.0019531 z M 9 16 L 9 17.5 C 9 18.331 9.669 19 10.5 19 L 11.5 19 C 12.331 19 13 18.331 13 17.5 L 13 16 L 11.5 16 L 10.5 16 L 9 16 z "
    class="ColorScheme-Text"
    />  
</svg>

<svg viewBox="0 0 22 22" xmlns="http://www.w3.org/2000/svg">
 <defs>
  <style type="text/css">.ColorScheme-Text {
        color:#2e3440;
      }</style>
 </defs>
 <path class="ColorScheme-Text" d="m11 3v0.0019531c-2.9996 0-4.5 1.9862-4.5 4.3984 0 2.5994 2.9141 7.5996 2.9141 7.5996l3.1719-0.003906s2.9141-4.9963 2.9141-7.5957c0-2.4122-1.4996-4.4004-4.5-4.4004zm0 1.002c2.3337 0 3.5 1.6558 3.5 3.666 0 2.1662-2.2656 6.3301-2.2656 6.3301l-2.4688 0.003906s-2.2656-4.1678-2.2656-6.334c0-2.0103 1.167-3.6641 3.5-3.6641v-0.0019531zm-2 11.998v1.5c0 0.831 0.669 1.5 1.5 1.5h1c0.831 0 1.5-0.669 1.5-1.5v-1.5h-1.5-1-1.5z" fill="currentColor"/>
</svg>
